src/1-subject/smartphone.svg

<svg width="1300" height="1000" viewBox="0 0 1300 1000" fill="none" xmlns="http://www.w3.org/2000/svg"><path d="M662.954 365.983a5 5 0 0 1 5.396-4.57l34.88 2.895a5 5 0 0 1 4.57 5.396l-5.541 66.771a5 5 0 0 1-5.396 4.569l-34.88-2.894a5.002 5.002 0 0 1-4.57-5.397l5.541-66.77Z" fill="#000"/><path d="M667.771 368.389a2 2 0 0 1 2.159-1.827l30.894 2.563a2 2 0 0 1 1.827 2.159l-5.21 62.784a2 2 0 0 1-2.158 1.828l-30.894-2.564a2 2 0 0 1-1.828-2.158l5.21-62.785Z" fill="#fff"/><path d="m670.43 372.624 28.901 2.398-4.218 50.825-28.9-2.398 4.217-50.825Z" fill="#000"/><path d="M382.074 468.162c0-1.662 5.902-57.127 23.43-93.162 15.049-29.175 36.996-35 80-35 46.317-.529 54.369 7.783 79.996 35.001C580 402.5 597.5 447 597.5 447l46.5-29 13.272-15.853a11.851 11.851 0 0 1 11.885-3.909c7.03 1.708 10.904 9.262 8.187 15.967L667.5 438.5l-80.306 68.023c-2.42 2.051-6.114 1.357-7.627-1.432L544 439.5l4 46.5 3 30.5L563.504 717l-1.5 156 15.598 6.406a20.001 20.001 0 0 1 12.402 18.501V899h-93.5l1.5-18a9.97 9.97 0 0 1-4.439-8.408L495.004 745l-9.5-125-9 125v128c0 3.147-1.482 6.111-4 8l1.5 18H382c0-7.632 4.401-14.58 11.301-17.842l16.203-7.658-2-156.5 6.5-118.5-5.869 22.986a.917.917 0 0 1-.642.657c-12.056 3.376-23.881-6.039-23.292-18.545l1.519-32.228s-3.646-59.37-3.646-103.208Z" fill="#fff"/><path d="M388.07 471.471s5.44-56.684 21.98-91.956c14.201-28.557 36.986-32.495 72.96-32.494 32.49 0 54.21 2.979 75.99 32.494C578 421 594 457.5 594 457.5l53.5-35 13.624-16.261a6.26 6.26 0 0 1 4.797-2.239c4.516 0 7.545 4.637 5.732 8.772L663 432.5l-75.253 64.64a2.999 2.999 0 0 1-4.554-.778l-45.434-78.891a.9.9 0 0 0-1.675.526L542 486.5l3 30.5 3 55.856 9.5 143.152-1.5 161.007 21.216 9.113a10 10 0 0 1 6.052 9.021l.064 3.851H502.5l2.09-22.009a5.004 5.004 0 0 1-5.033-5.05l1.198-128.82-12.532-147.284a2.859 2.859 0 0 0-5.698.009l-12.035 147.29-.242 129.575a4.319 4.319 0 0 1-4.348 4.31L467.891 899H388c0-5.192 2.968-9.927 7.641-12.189l20.179-9.77-2.16-161.021L421 572.5l2.5-55.5 3-30 5.395-68.664a1.228 1.228 0 0 0-2.442-.254l-6.463 50.009-9.49 104.402-10.216 43.652a.63.63 0 0 1-.613.486c-7.175 0-12.898-5.99-12.572-13.158l1.411-30.98-3.45-101.022h.01Z" fill="#000"/><path d="M472.324 339c3.926 1.471 11.257 1.995 13.176 2 0 0 8.646-.072 13.682-2 5.676-2.172 8.837-4.293 12.669-8.96 2.619-3.188 4.662-8.697 5.57-11.42.358-1.076.606-2.181.795-3.3l4.277-25.32s.516-3.649.507-6c-.02-5.591-.777-8.874-3.041-14-2.325-5.265-4.358-8.083-8.614-12-4.537-4.176-7.807-6-13.683-7.968-4.561-1.528-7.345-1.993-12.162-2.032-5.17.175-7.095.5-12.029 2.032-4.938 1.649-9.979 4.57-13.816 7.968-3.836 3.398-6.521 7.42-8.614 12-2.094 4.58-3.039 9.002-3.041 14 .001 1.885.208 4.137.507 6l5.084 24.993a24.33 24.33 0 0 0 1.005 3.605c1.072 2.894 3.346 8.603 5.566 11.402 3.047 3.841 7.466 7.241 12.162 9Z" fill="#fff"/><path d="M474.432 333.258c3.298 1.281 9.456 1.738 11.068 1.742 0 0 7.263-.063 11.493-1.742 4.767-1.892 7.423-3.739 10.642-7.804 2.15-2.714 3.839-7.36 4.625-9.782.339-1.045.572-2.118.748-3.202l3.566-21.889s.433-3.178.426-5.226c-.017-4.87-.652-7.729-2.554-12.194-1.953-4.585-3.662-7.039-7.237-10.451-3.811-3.637-6.558-5.226-11.493-6.94-3.832-1.331-6.17-1.736-10.216-1.77-4.342.152-5.959.435-10.104 1.77-4.148 1.436-8.383 3.98-11.605 6.94-3.223 2.959-5.478 6.462-7.237 10.451-1.759 3.99-2.552 7.841-2.554 12.194 0 1.641.175 3.603.426 5.226l4.234 21.584c.234 1.19.535 2.363.946 3.504.924 2.57 2.789 7.37 4.61 9.75 2.56 3.346 6.272 6.307 10.216 7.839Z" fill="#000"/></svg>

<svg width="1300" height="1000" viewBox="0 0 1300 1000" fill="none" xmlns="http://www.w3.org/2000/svg">
<path d="M662.954 365.983C663.182 363.231 665.598 361.185 668.35 361.413L703.23 364.308C705.982 364.536 708.028 366.952 707.8 369.704L702.259 436.475C702.031 439.227 699.615 441.272 696.863 441.044L661.983 438.15C659.231 437.921 657.185 435.505 657.413 432.753L662.954 365.983Z" fill="black"/>
<path d="M667.771 368.389C667.863 367.289 668.829 366.47 669.93 366.562L700.824 369.125C701.924 369.217 702.743 370.183 702.651 371.284L697.441 434.068C697.35 435.169 696.384 435.987 695.283 435.896L664.389 433.332C663.288 433.241 662.47 432.274 662.561 431.174L667.771 368.389Z" fill="white"/>
<path d="M670.43 372.624L699.331 375.022L695.113 425.847L666.213 423.449L670.43 372.624Z" fill="black"/>
<path d="M382.074 468.162C382.074 466.5 387.976 411.035 405.504 375C420.553 345.825 442.5 340 485.504 340C531.821 339.471 539.873 347.783 565.5 375.001C580 402.5 597.5 447 597.5 447L644 418L657.272 402.147C660.167 398.689 664.774 397.173 669.157 398.238C676.187 399.946 680.061 407.5 677.344 414.205L667.5 438.5L587.194 506.523C584.774 508.574 581.08 507.88 579.567 505.091L544 439.5L548 486L551 516.5L563.504 717L562.004 873L577.602 879.406C585.105 882.488 590.004 889.796 590.004 897.907V899H496.504L498.004 881C495.197 879.129 493.527 875.965 493.565 872.592L495.004 745L485.504 620L476.504 745V873C476.504 876.147 475.022 879.111 472.504 881L474.004 899H382C382 891.368 386.401 884.42 393.301 881.158L409.504 873.5L407.504 717L414.004 598.5L408.135 621.486C408.054 621.804 407.809 622.055 407.493 622.143C395.437 625.519 383.612 616.104 384.201 603.598L385.72 571.37C385.72 571.37 382.074 512 382.074 468.162Z" fill="white"/>
<path d="M388.07 471.471C388.07 471.471 393.51 414.787 410.05 379.515C424.251 350.958 447.036 347.02 483.01 347.021C515.5 347.021 537.22 350 559 379.515C578 421 594 457.5 594 457.5L647.5 422.5L661.124 406.239C662.313 404.82 664.07 404 665.921 404C670.437 404 673.466 408.637 671.653 412.772L663 432.5L587.747 497.14C586.321 498.366 584.131 497.992 583.193 496.362L537.759 417.471C537.599 417.192 537.302 417.021 536.98 417.021C536.453 417.021 536.039 417.472 536.084 417.997L542 486.5L545 517L548 572.856L557.5 716.008L556 877.015L577.216 886.128C580.833 887.681 583.202 891.213 583.268 895.149L583.332 899H502.5L504.59 876.991C501.797 877.007 499.531 874.734 499.557 871.941L500.755 743.121L488.223 595.837C488.097 594.357 486.859 593.221 485.374 593.221C483.886 593.221 482.647 594.363 482.525 595.846L470.49 743.136L470.248 872.711C470.244 875.104 468.293 877.037 465.9 877.021L467.891 899H388C388 893.808 390.968 889.073 395.641 886.811L415.82 877.041L413.66 716.02L421 572.5L423.5 517L426.5 487L431.895 418.336C431.951 417.618 431.381 417.005 430.66 417.012C430.047 417.017 429.531 417.474 429.453 418.082L422.99 468.091L413.5 572.493L403.284 616.145C403.217 616.429 402.963 616.631 402.671 616.631C395.496 616.631 389.773 610.641 390.099 603.473L391.51 572.493L388.06 471.471H388.07Z" fill="black"/>
<path d="M472.324 339C476.25 340.471 483.581 340.995 485.5 341C485.5 341 494.146 340.928 499.182 339C504.858 336.828 508.019 334.707 511.851 330.04C514.47 326.852 516.513 321.343 517.421 318.62C517.779 317.544 518.027 316.439 518.216 315.32L522.493 290C522.493 290 523.009 286.351 523 284C522.98 278.409 522.223 275.126 519.959 270C517.634 264.735 515.601 261.917 511.345 258C506.808 253.824 503.538 252 497.662 250.032C493.101 248.504 490.317 248.039 485.5 248C480.33 248.175 478.405 248.5 473.471 250.032C468.533 251.681 463.492 254.602 459.655 258C455.819 261.398 453.134 265.42 451.041 270C448.947 274.58 448.002 279.002 448 284C448.001 285.885 448.208 288.137 448.507 290L453.591 314.993C453.84 316.218 454.162 317.425 454.596 318.598C455.668 321.492 457.942 327.201 460.162 330C463.209 333.841 467.628 337.241 472.324 339Z" fill="white"/>
<path d="M474.432 333.258C477.73 334.539 483.888 334.996 485.5 335C485.5 335 492.763 334.937 496.993 333.258C501.76 331.366 504.416 329.519 507.635 325.454C509.785 322.74 511.474 318.094 512.26 315.672C512.599 314.627 512.832 313.554 513.008 312.47L516.574 290.581C516.574 290.581 517.007 287.403 517 285.355C516.983 280.485 516.348 277.626 514.446 273.161C512.493 268.576 510.784 266.122 507.209 262.71C503.398 259.073 500.651 257.484 495.716 255.77C491.884 254.439 489.546 254.034 485.5 254C481.158 254.152 479.541 254.435 475.396 255.77C471.248 257.206 467.013 259.75 463.791 262.71C460.568 265.669 458.313 269.172 456.554 273.161C454.795 277.151 454.002 281.002 454 285.355C454 286.996 454.175 288.958 454.426 290.581L458.66 312.165C458.894 313.355 459.195 314.528 459.606 315.669C460.53 318.239 462.395 323.039 464.216 325.419C466.776 328.765 470.488 331.726 474.432 333.258Z" fill="black"/>
</svg>
